X:1
T:[ID 1-78a]
T:[ID 1-78a]
T:Bezeichnung standardisiert: Menuett Menuet In dieser Quelle auch als: Menuetto
T:Urheber unbekannt Erstbeleg: vor 1767 (Datum in der schriftlichen Quelle) Datum in der hier transkribierten schriftlichen Quelle: 1799
C:Urheber unbekannt
C:Erstbeleg: vor 1767 (Datum in der schriftlichen Quelle)
C:Datum in der hier transkribierten schriftlichen Quelle: 1799
%%score 1 2
L:1/8
M:3/4
K:D
V:1 treble nm="Primo"
V:2 treble nm="Secondo"
V:1
 a4 fd | e2 dc d2 | A4 FD | E2 DC D2 | ABcdec | A2 g4 | fa g2 f2 |{f} e6 :: A3 B_cA | BAGF G2 | %10
 B3 cdB | cBA^G A2 | e3 gfe | fedc d2 | (3BAG F2 E2 | D6 :| %16
V:2
 !fermata!f4 dF | G2 FE F2 | F4 DF | G2 FE F2 | AGABcA | C2 e4 | df e2 d2 | c6 :: F3 GAF | %9
 GDB,A, B,2 | ^G3 ABG | AECB, C2 | c3 edc | dAFE F2 | (3GFE D2 E2 | F6 :| %16

